!!!!SEGMENT: pl-wtm--1350-fp-4575--001-003_stojowski-zygmunt--idylles-polonaises-op-24-no-4-vision-de-danse.krn
!!!cenid: 19xx:167
!!!COM: Stojowski, Zygmunt
!!!COM-rismID: pe41019736
!!!CDT: 1870-1946
!!!CNT: Polish
!!!GTL: Idylles Polonaises Op. 24
!!!OTL: No. 4 Vision De Danse
!!!OMV: 003
!!!PDT: 1901
!!!AGN: Secular; Polonaise
!!!YEC: Copyright 2022 Narodowy Instytut Fryderyka Chopina (https://polishscores.org)
!!!YEM: License CC-BY-4.0 (https://creativecommons.org/licenses/by/4.0)
!!!SMS-siglum: PL-Wtm
!!!SMS-shelfmark: 1290 fp 4575
!!!SMS-variant:
!!!SMS-altvar:
!!!SMS-shelfwork: 001-003 G
!!!NIFC-rismSourceID: 1001214687
!!!NIFC-rismChildID: 1001214687
!!!NIFC-islandoraID: pl-wtm:83027
!!!URL-pdf-islandora: https://repozytorium.nifc.pl/islandora/object/pl-wtm%3A83027/datastream/PDF/view
!!!URL-scan: https://polish.musicsources.pl/pl/lokalizacje/galeria/druki-muzyczne/18546/5 @EN{Scan on Polish Music Sources Website} @PL{Skany w portalu Dziedzictwo Muzyki Polskiej w otwartym dostępie}
!!!IIIF:
!!!ONB-nifc:
!!!AIN: 1 piano
!!!key: C
**kern	**fing	**kern	**fing	**dynam
*part1	*part1	*part1	*part1	*part1
*staff2	*	*staff1	*	*
*I"Piano	*	*I"Piano	*	*
*I'[pf]	*	*I'[pf]	*	*
*ICklav	*	*ICklav	*	*
*Ipiano	*	*Ipiano	*	*
*clefF4	*	*clefG2	*	*
*k[]	*	*k[]	*	*
*C:	*	*C:	*	*
*M3/8	*	*M3/8	*	*
=1	=1	=1	=1	=1
!	!	!LO:TX:a:B:t=Vivace ma non assai.	!	!
4.r	.	(16e/LL	2	mf
.	.	16g/JJ	.	.
.	.	[4f#X/)	.	.
=2	=2	=2	=2	=2
4.r	.	4.f#/_	.	.
=3	=3	=3	=3	=3
4.r	.	8f#/L]	.	.
.	.	(16e/L	.	p
.	.	16g/J	.	.
.	.	8f#X'/J)	.	.
=4	=4	=4	=4	=4
4.r	.	(16e/LL	.	.
.	.	16g/J	.	.
.	.	8f#X'/)	.	.
.	.	(16e/L	.	.
.	.	16g/JJ	.	.
=5	=5	=5	=5	=5
4.r	.	[>4.f/)	3-4	.
=6	=6	=6	=6	=6
*	*	*^	*	*
4.BBB;/ 4.BB	.	4.f;/]	4.A\ 4.d#X	.	.
*	*	*v	*v	*	*
=7	=7	=7	=7	=7
4.r	.	8r	.	.
.	.	(16e/LL	.	.
.	.	16g/J	.	.
!	!	!	!	!LO:DY:t=più p
.	.	8f#X/J)	.	p
=8	=8	=8	=8	=8
4.r	.	(16e/LL	.	.
.	.	16g/J	.	.
.	.	8f#X/)	.	.
.	.	(16e/L	.	.
.	.	16g/JJ	.	.
=9	=9	=9	=9	=9
4.r	.	[>4.f#X/)	3-4	.
=10	=10	=10	=10	=10
*	*	*^	*	*
4.CC;/ 4.C	.	4.f#;/]	4.A\ 4.dn	.	.
*	*	*v	*v	*	*
!!LO:LB:g=original	!	!	!	!
=11	=11	=11	=11	=11
4.r	.	(16e/LL	2	.
.	.	16g/	4	.
.	.	16f#X/	3	.
.	.	16e/	2	.
.	.	16g/	4	.
.	.	16f#/JJ	.	.
=12	=12	=12	=12	=12
4.r	.	16a\LL	1	.
.	.	16dd\	2	<
.	.	16ee\	3	.
.	.	16gg\	5	.
.	.	16ff#X\	3	.
.	.	16ee\JJ	2	.
=13	=13	=13	=13	=13
4.r	.	16gg\LL	4	.
.	.	16ff#X\	.	.
.	.	16ee\	.	[
.	.	16gg\	.	.
.	.	16ff#\	.	.
.	.	16ee\JJ	.	.
=14	=14	=14	=14	=14
4.r	.	16gg\LL	.	.
.	.	16ff#X\	.	.
.	.	16ee\	.	.
.	.	16gg\	.	.
.	.	16ff#\	.	.
.	.	16gg\JJ	.	.
=15	=15	=15	=15	=15
4.r	.	4.ff#Xt\	.	.
=16	=16	=16	=16	=16
4.r	.	4.ff#Xt\	.	.
=17	=17	=17	=17	=17
4.r	.	8ff#X'\L)	.	.
!	!	!LO:TX:b:i:t=poco rall.	!	!LO:HP:a
.	.	8ee'\	5	>
.	.	8dd'\J	.	.
=18	=18	=18	=18	=18
4.r	.	8ee'\L	.	.
.	.	8dd'\	.	]
.	.	[8cc'\J	.	.
=19	=19	=19	=19	=19
4.r	.	4.cc\_	.	.
=20	=20	=20	=20	=20
4.r	.	4.cc\]	.	.
!!LO:LB:g=original	!	!	!	!
=21	=21	=21	=21	=21
4.r	.	(16b\LL	.	mf
.	.	16dd\JJ	.	.
.	.	[4cc\	.	.
=22	=22	=22	=22	=22
4.r	.	4.cc\_	.	.
=23	=23	=23	=23	=23
!	!	!LO:TX:a:i:t=accel. al_	!	!
!	!	!LO:TX:a:Bi:t=accel. al_:problem: with line extensions	!	!
4.r	.	8cc\L])	.	.
.	.	(16b\L	.	p
.	.	16dd\J	.	.
.	.	8cc\J)	.	.
=24	=24	=24	=24	=24
4.r	.	(16b\LL	.	.
.	.	16dd\J	.	.
.	.	8cc\)	.	.
.	.	(16b\L	2	.
.	.	16dd\JJ	4	.
*clefG2	*	*	*	*
=25	=25	=25	=25	=25
*	*below	*	*	*
!	!	!LO:TX:a:B:t=Tempo I.	!	!
8c'/ 8e	2 4	16cc\LL	1	.
.	.	16ee\	2	.
4c^/ 4d	.	16gg\	.	.
.	.	16ff#X\J	.	.
.	.	8aa\J)	.	.
=26	=26	=26	=26	=26
8c'/ 8d#X	2 4	(16ff#X\LL	2	.
.	.	16aa\JJ)	4	.
4c~/ 4e	.	4gg~\	.	.
=27	=27	=27	=27	=27
(8c/L 8e	4	(16ee\LL	1	.
.	.	16gg\J	4	.
8d'/) 8a	3	8ff#X'\)	3	.
8d'/J 8a	.	8ff#'\J	.	.
=28	=28	=28	=28	=28
8B'/ 8g	.	(16dd\LL	.	.
.	.	16ffn\JJ)	.	.
4c~/ 4g	4	4ee'~\	.	.
=29	=29	=29	=29	=29
!LO:TX:b:i:t=poco rilevato	!	!	!	!
(16c/LL	5	8r	.	.
16e/	.	.	.	.
16g/	.	(8cc\L 8ee	1 3	.
16f#X/J	2	.	.	.
8a'/J)	1	8cc\J) 8ff#X	.	.
!!LO:LB:g=original	!	!	!	!
=30	=30	=30	=30	=30
(16f#X/LL	3	8cc\ 8dd	3	.
16a/JJ)	1	.	.	.
4g/	.	4b\ 4dd	.	.
=31	=31	=31	=31	=31
(16e/LL	4	(8b\L 8gg	1 4	.
16g/J	1	.	.	.
8f#X/)	.	8dd'\) 8aa	2 5	.
8d'/J 8f#	.	8dd'\J 8ccc	.	.
=32	=32	=32	=32	=32
(16G/LL 16d	.	8dd'\ 8bb	.	.
16fn/JJ)	.	.	.	.
4c~/ 4e	.	4cc~\ 4ccc	.	.
=33	=33	=33	=33	=33
!	!	!LO:TX:i:a:t=espress.	!	!
8d'/ 8f	3	(16b\LL	2	.
.	.	16dd\J	.	.
4A/ 4e	2 5	8cc\	.	.
.	.	8a\J)	1	.
=34	=34	=34	=34	=34
4B/ 4d	2 4	(16g\LL	1	.
.	.	16b\J	2	.
.	.	8dd\)	4	.
8G/ 8g	.	8ee~\J	5	.
=35	=35	=35	=35	=35
8d'/ 8f	3	(16b\LL	2	.
.	.	16dd\	4	.
4A/ 4e	5	16cc\	.	>
.	.	16b\J	.	.
.	.	8a\J)	.	.
=36	=36	=36	=36	=36
4B/ 4d	4	(16g\LL	.	.
.	.	16b\J	.	.
.	.	8dd\)	.	]
8G/ 8g	.	8ee~\J	.	.
=37	=37	=37	=37	=37
!	!	!LO:TX:a:i:t=poco a poco rall.	!	!
8d/ 8f	3	(16b\LL	.	.
.	.	16dd\)	.	.
4A'/ 4e	.	16cc'\	.	.
.	.	16b'\J	.	.
.	.	8a'\J	.	.
*clefF4	*	*	*	*
!!LO:LB:g=original	!	!	!	!
=38	=38	=38	=38	=38
*	*	*^	*	*
4.E\ 4.B	1 5	(16g#X/LL	4.g#^\	1	.
.	.	16b/J	.	.	<
.	.	8dd/	.	.	.
.	.	[8ff/J)	.	.	.
=39	=39	=39	=39	=39	=39
4.E-X\ 4.c	4	8ff/L]	[4.a\	.	[
.	.	8ff~/	.	4	.
.	.	8ff~/J	.	.	.
=40	=40	=40	=40	=40	=40
!	!	!LO:TX:i:a:t=a tempo	!	!	!
8D\ 8c	.	(16ff#X/LL	8a\]	3	>
.	.	16aa/)	.	.	.
(4G\ 4B	1 2	(16gg/	4g\	5	] p
.	.	16ffn/	.	4	.
.	.	16dd/	.	2	.
.	.	16ee/JJ	.	3	.
*	*	*v	*v	*	*
=41	=41	=41	=41	=41
8C\) 8E 8c	.	8cc\)	.	.
[4CC/ [4GG	.	8r	.	.
.	.	8r	.	.
=42	=42	=42	=42	=42
4CC/] 4GG]	.	4.r	.	.
8r	.	.	.	.
=43	=43	=43	=43	=43
8E'\ 8B	.	8e'/ 8g#X 8ee	.	f
!LO:TX:a:i:t=m.d.	!	!	!	!
*	*	*	*below	*
4EE^\ 4BB	.	4E<^/	2	.
=44	=44	=44	=44	=44
8E'\ 8B	.	8e'/ 8g#X 8ee	.	.
!LO:TX:a:i:t=m.d.	!	!	!	!
[4EE^\ [4BB	.	[4E<^/	.	.
=45	=45	=45	=45	=45
(16EE\LL] 16BB]	.	(16E</LL]	.	.
!	!	!	!	!LO:HP:a
32FF#X\L	.	32F#X</L	.	<
32GG#X\JJJ	.	32G#X</JJJ	.	.
32AA\LLL	.	32A</LLL	.	.
32BB\	.	32B</	.	.
32C#X\	.	32c#X\	.	.
32D#X\JJ	.	32d#X\JJ	.	.
8E\J)	.	8e\J)	.	[
!!LO:PB:g=original	!	!	!	!
=46	=46	=46	=46	=46
(16EE^\LL	.	(16E<^/LL	.	.
!	!	!	!	!LO:HP:a
32FF#X\L	.	32F#X</L	.	<
32GG#X\JJJ	.	32G#X</JJJ	.	.
32AA\LLL	.	32A</LLL	.	.
32BB\	.	32B</	.	.
32C#X\	.	32c#X\	.	.
32D#X\JJ	.	32d#X\JJ	.	.
8E\J)	.	8e\J)	.	[
=47	=47	=47	=47	=47
16D^/LL	3	16dn^>/LL	.	.
*	*	*	*above	*
16E/	.	16e/	3	.
16F/	.	16f/	4	.
16D/	2	16d/	2	.
16BB/	4	16B/	1	.
16D/JJ	2	16d/JJ	3	.
=48	=48	=48	=48	=48
16C/LL	3	16c/LL	2	.
16D/	.	16d/	.	.
16E/	.	16e/	.	.
16C/J	.	16c/J	.	.
8AA^/J	.	8A^>/J	.	.
=49	=49	=49	=49	=49
16D^>/LL	.	16d^>/LL	2	.
16E/	.	16e/	.	.
16F/	.	16f/	.	.
16D/	.	16d/	.	.
16BB/	.	16B/	1	.
16D/JJ	.	16d/JJ	3	.
=50	=50	=50	=50	=50
16C/LL	.	16c/LL	2	.
16D/	.	16d/	.	.
16E/	.	16e/	.	.
16C/J	.	16c/J	.	.
8AA^/J	.	8A^>/J	.	.
!!LO:LB:g=original	!	!	!	!
=51	=51	=51	=51	=51
8E'\ 8B	.	8e'/ 8g#X 8ee	.	.
!LO:TX:a:i:t=m.d.	!	!	!	!
*	*	*	*below	*
4EE^\ 4BB	.	4E<^/	2	.
=52	=52	=52	=52	=52
8E'\ 8B	.	8e'/ 8g#X 8ee	.	.
!LO:TX:a:i:t=m.d.	!	!	!	!
[4EE^\ [>4BB	.	[4E<^/	.	.
=53	=53	=53	=53	=53
(16EE\LL] 16BB]	.	(16E</LL]	.	.
!	!	!	!	!LO:HP:a
32FF#X\L	.	32F#X</L	.	<
32GG#X\JJJ	.	32G#X</JJJ	.	.
32AA\LLL	.	32A</LLL	.	.
32BB\	.	32B</	.	.
32C#X\	.	32c#X\	.	.
32D#X\JJ	.	32d#X\JJ	.	.
8E\J)	.	8e\J)	.	[
=54	=54	=54	=54	=54
(16EE^\LL	.	(16E<^/LL	.	.
!	!	!	!	!LO:HP:a
32FF#X\L	.	32F#X</L	.	<
32GG#X\JJJ	.	32G#X</JJJ	.	.
32AA\LLL	.	32A</LLL	.	.
32BB\	.	32B</	.	.
32C#X\	.	32c#X\	.	.
32D#X\JJ	.	32d#X\JJ	.	.
8E\J)	.	8e\J)	.	[
=55	=55	=55	=55	=55
*	*above	*	*above	*
16Gn^>\LL	3	16gn^>/LL	2	.
16A\	.	16a/	3	.
16B-X\	.	16b-X/	4	.
16G\	2	16g/	2	.
16E\	4	16e/	1	.
16G\JJ	2	16g/JJ	3	.
=56	=56	=56	=56	=56
16F\LL	3	16f/LL	2	.
16G\	.	16g/	.	.
16A\	.	16a/	.	.
16F\J	.	16f/J	.	.
8D^\J	.	8d^>/J	.	.
!!LO:LB:g=original	!	!	!	!
=57	=57	=57	=57	=57
16G^\LL	.	16g^>/LL	.	.
16A\	.	16a/	.	.
16B-X\	.	16b-X/	.	.
16G\	.	16g/	.	.
16E\	.	16e/	.	.
16G\JJ	.	16g/JJ	.	.
=58	=58	=58	=58	=58
16F\LL	.	16f/LL	.	.
16G\	.	16g/	.	.
16A\	.	16a/	.	.
16F\J	.	16f/J	.	.
8D^\J	.	8d^>/J	.	.
=59	=59	=59	=59	=59
*	*below	*	*	*
4BB-X\ 4F	4	4.r	.	.
8BB-^\ 8F	.	.	.	.
=60	=60	=60	=60	=60
4BB-X\ 4F	.	4.r	.	.
8BB-^\ 8F	.	.	.	.
=61	=61	=61	=61	=61
4BB-X\ 4F	.	16dd^\LL	2	.
.	.	16ee\	.	.
.	.	16ff\	.	.
.	.	16dd\	.	.
8BB-\ 8F	.	16cc\	.	.
.	.	16ee\JJ	.	.
=62	=62	=62	=62	=62
*	*	*	*^	*
*	*	*	*below	*above	*
4BB-X\ 4F	.	16dd\LL	2	2	.
.	.	16ee\	.	.	.
.	.	16ff\	.	.	.
.	.	16dd\J	1	2	.
8BB-\ 8F	.	8b-X^\J	2	1	.
*	*	*	*v	*v	*
!!LO:LB:g=original	!	!	!	!
=63	=63	=63	=63	=63
4BB-X\ 4F	.	16dd^\LL	.	.
.	.	16ee\	.	.
.	.	16ff\	.	.
.	.	16dd\	.	.
8BB-\ 8F	.	16cc\	.	.
.	.	16ee\JJ	.	.
=64	=64	=64	=64	=64
4BB-X\ 4F	.	16dd\LL	.	.
.	.	16ee\	.	.
.	.	16ff\	.	.
.	.	16dd\J	.	.
8BB-\ 8F	.	8b-X^\J	.	.
=65	=65	=65	=65	=65
!	!	!LO:TUP:a	!	!
4BB-X\ 4F	.	(24cc\LL	3	.
.	.	24dd\	.	.
.	.	24cc\J	.	.
.	.	8b-X\)	.	.
8BB-\ 8F	.	8dd'^\J	.	<
=66	=66	=66	=66	=66
!	!	!LO:TUP:a	!	!
4BB-X\ 4F#X	.	(24cc\LL	3	.
.	.	24dd\	.	.
.	.	24cc\J	.	.
.	.	8b-X\)	.	.
8BB-\ 8F#	.	8a'^\J	.	.
=67	=67	=67	=67	=67
!	!	!LO:TUP:b	!	!
4BB-X\ 4G	.	(24g/LL	3	.
.	.	24a/	.	.
.	.	24g/J	.	.
.	.	8f/)	.	[
8D\ 8A	2 5	8a'^/J	.	.
=68	=68	=68	=68	=68
!	!	!LO:TUP:b	!	!
4D\ 4A 4Bn	.	(24g/LL	3	.
.	.	24a/	.	.
.	.	24g/J	.	.
.	.	8f/)	.	.
8D\ 8A 8c#X	.	8e'^/J	.	.
!!LO:LB:g=original	!	!	!	!
=69	=69	=69	=69	=69
4D\ 4A 4d	.	4.r	.	.
8D\ 8A 8d	.	.	.	>
=70	=70	=70	=70	=70
4D\ 4A 4d	.	4.r	.	.
8D\ 8A 8d	.	.	.	]]
=71	=71	=71	=71	=71
*ped	*	*	*	*
4D\ 4A 4d	.	16ff#X\LL	2	p
.	.	16gg#X\	.	.
.	.	16aa\	.	.
.	.	16ff#\	.	.
8D\ 8A 8d	.	16ee\	.	.
.	.	16gg#\JJ	.	.
=72	=72	=72	=72	=72
4D\ 4A 4d	.	16ff#X\LL	.	.
.	.	16gg#X\	.	.
.	.	16aa\	.	.
.	.	16ff#\J	.	.
8D\ 8A 8d	.	8dd\J	.	.
=73	=73	=73	=73	=73
4D\ 4A 4d	.	16ff#X\LL	.	.
.	.	16gg#X\	.	.
.	.	16aa\	.	.
.	.	16ff#\	.	.
8D\ 8A 8d	.	16ee\	.	.
.	.	16gg#\JJ	.	.
=74	=74	=74	=74	=74
4D\ 4A 4d	.	16ff#X\LL	.	.
.	.	16gg#X\	.	.
.	.	16aa\	.	.
.	.	16ff#\J	.	.
8D\ 8A 8d	.	8dd\J	.	.
*Xped	*	*	*	*
!!LO:LB:g=original	!	!	!	!
=75	=75	=75	=75	=75
!	!	!LO:TUP:a	!	!
4D\ 4A 4d	.	(24ee\LL	2	.
.	.	24ff#X\	.	.
.	.	24ee\J	.	.
.	.	8dd\)	.	<
8D\ 8A 8d	.	8ff#'^\J	.	.
=76	=76	=76	=76	=76
!	!	!LO:TUP:a	!	!
4D\ 4A#X 4d	.	(24ee\LL	2	.
.	.	24ff#X\	.	.
.	.	24ee\J	.	[
.	.	8dd\)	.	.
8D\ 8A# 8d	.	8cc#X'^\J	3	.
=77	=77	=77	=77	=77
!	!	!LO:TUP:a	!	!
4D\ 4B 4d	.	(24b\LL	2	.
.	.	24cc#X\	.	.
.	.	24b\J	.	.
.	.	8a\)	.	.
8F#X\ 8c#X	.	8cc#'^\J	.	.
=78	=78	=78	=78	=78
!	!	!LO:TUP:b	!	!
4F#X\ 4c#X 4d#X	.	(24b/LL	2	>
.	.	24cc#X/	.	.
.	.	24b/J	.	.
.	.	8a/)	.	.
8F#\ 8c# 8e#X	.	8g#X'^>/J	.	]]
=79	=79	=79	=79	=79
4F#X\ 4c#X 4f#X	.	4.r	.	.
8F#\ 8c# 8f#	.	.	.	.
=80	=80	=80	=80	=80
4F#X\ 4c#X 4f#X	.	4.r	.	.
8F#\ 8c# 8f#	.	.	.	.
*	*	*clefF4	*	*
!!LO:PB:g=original	!	!	!	!
=81	=81	=81	=81	=81
!	!	!LO:TX:b:i:t=poco marcato	!	!
4F#X\ 4c#X 4f#X	.	16AAn^>/LL	1	.
.	.	16BB#X/	3	.
.	.	16C#X/	.	.
.	.	16AA/	1	.
8F#\ 8d 8f#	.	16GG#X/	2	.
.	.	16BB#/JJ	3	.
=82	=82	=82	=82	=82
4F#X\ 4c#X 4f#X	.	16AA/LL	1	.
.	.	16BB#X/	3	.
.	.	16C#X/	4	.
.	.	16AA/J	1	.
8F#\ 8c# 8f#	.	8FF#X^>/J	2	.
=83	=83	=83	=83	=83
!	!	!	!	!LO:HP:t=dim.
4F#X\ 4c#X 4f#X	.	16AAn/LL	1	>
.	.	16BB#X/	3	.
.	.	16C#X/	.	.
.	.	16AA/	.	.
8F#\ 8d 8f#	.	16GG#X/	.	.
.	.	16BB#/JJ	.	.
=84	=84	=84	=84	=84
4F#X\ 4c#X 4f#X	.	16AA/LL	.	.
.	.	16BB#X/	.	.
.	.	16C#X/	.	.
.	.	16AA/J	.	.
8F#\ 8c# 8f#	.	[8FF#X/J	.	.
=85	=85	=85	=85	=85
4F#X\ 4c#X 4f#X	.	4.FF#/]	.	.
8F#\ 8c# 8f#	.	.	.	.
=86	=86	=86	=86	=86
4F#X\ 4c#X 4f#X	.	16AA/LL	.	p
.	.	16BB#X/	.	.
.	.	16C#X/	.	.
.	.	16AA/J	.	.
8F#\ 8c# 8f#	.	[8FF#X/J	.	.
!!LO:LB:g=original	!	!	!	!
=87	=87	=87	=87	=87
4F#X\ 4c#X 4f#X	.	4.FF#/]	.	.
8F#\ 8c# 8f#	.	.	.	.
=88	=88	=88	=88	=88
!	!	!LO:TUP:a	!	!
4G#X\ 4B#X 4f#X	.	(24EE/LL	3	f
.	.	24FF#X/	.	.
.	.	24EE/J	.	.
.	.	8DD/)	.	.
8G#\ 8B# 8f#	.	[8FF#^>/J	.	.
=89	=89	=89	=89	=89
4G#X\ 4B#X 4f#X	.	4.FF#/]	.	.
8G#\ 8B# 8f#	.	.	.	.
=90	=90	=90	=90	=90
!	!	!	!	!LO:HP:t=poco a poco dim.
4G#X\ 4B#X 4f#X	.	(24EE/LL	.	>
.	.	24FF#X/	.	.
.	.	24EE/J	.	.
.	.	8DD/)	.	.
8G#\ 8B# 8f#	.	8FF#/J	.	.
=91	=91	=91	=91	=91
4G#X\ 4B#X 4f#X	.	(24EE/LL	.	.
.	.	24FF#X/	.	.
.	.	24EE/J	.	.
.	.	8DD/)	.	.
8G#\ 8B# 8f#	.	8FF#/J	.	.
=92	=92	=92	=92	=92
!	!	!LO:TX:b:i:t=calando	!	!
4G#X\ 4B#X 4f#X	.	(24EE/LL	.	.
.	.	24FF#X/	.	.
.	.	24EE/J	.	.
.	.	8DD/)	.	.
8G#\ 8B# 8f#	.	[8FF#^>/J	.	.
!!LO:LB:g=original	!	!	!	!
=93	=93	=93	=93	=93
4G#X\ 4B#X 4f#X	.	4.FF#/]	.	.
8G#\ 8B# 8f#	.	.	.	.
=94	=94	=94	=94	=94
!	!	!	!	!LO:HP:a
[4.G#X\ [4.B#X [4.f#X	.	8FF/L	.	>
.	.	8EE'/	.	.
.	.	8DD'/J	.	.
=95	=95	=95	=95	=95
4.G#\_ 4.B#_ 4.f#_	.	8EE'/L	4	.
.	.	8DD'/	.	.
.	.	[8CCn~/J	.	]
=96	=96	=96	=96	=96
4G#;<\] 4B#] 4f#]	.	4CC;/]	.	.
8r	.	8r	.	.
=97	=97	=97	=97	=97
!	!	!LO:TX:a:i:t=a tempo	!	!
[4.CCC/ [4.CC	.	4.r	.	sf
=98	=98	=98	=98	=98
4.CCC/] 4.CC]	.	4.r	.	.
=99	=99	=99	=99	=99
[4.CCC/ [4.CC	.	4.r	.	sf
=100	=100	=100	=100	=100
4.CCC/] 4.CC]	.	4.r	.	.
*	*	*clefG2	*	*
=101	=101	=101	=101	=101
*	*above	*	*	*
16ryy	.	16c/LL 16cc	.	ff
!LO:TX:a:i:t=m.s.	!	!	!	!
16e>\LL	3	16ryy	.	.
16ryy	.	16g/JJ 16gg	.	.
16f#X>\JJ	2	16ryy	.	.
8ryy	.	8a^>/ 8aa	.	.
=102	=102	=102	=102	=102
*	*	*^	*	*
16f#X>\	.	16ryy	8ryy	.	.
16ryy	.	16a/ 16aa	.	.	.
8r	.	4g/ 4gg	8r	.	.
8CCC^>/ 8CC	.	.	8G^>\ 8c 8e 8g	.	.
!!LO:LB:g=original	!	!	!	!	!
=103	=103	=103	=103	=103	=103
16e>\	.	16ryy	8ryy	.	.
16ryy	.	16g/ 16gg	.	.	.
8r	.	4f#X/ 4ff#X	8r	.	.
8CCC^>/ 8CC	.	.	8F#X\ 8A 8d 8f#	.	.
=104	=104	=104	=104	=104	=104
16G\ 16d>	.	16ryy	8ryy	.	.
16ryy	.	16fn/ 16b 16ffn	.	.	.
8r	.	4e/ 4ee	8r	.	.
8CCC^>/ 8CC	.	.	8E^>\ 8G 8c 8e	.	.
*	*	*v	*v	*	*
=105	=105	=105	=105	=105
16ryy	.	16c/LL 16cc	.	.
16e>\LL	.	16ryy	.	.
16ryy	.	16g/JJ 16gg	.	.
16f#X>\JJ	.	16ryy	.	.
8ryy	.	8a/ 8aa	.	.
=106	=106	=106	=106	=106
*	*	*^	*	*
16f#X>\	.	16ryy	8ryy	.	.
16ryy	.	16a/ 16aa	.	.	.
8r	.	4g/ 4gg	8r	.	.
8CCC^>/ 8CC	.	.	8G^\ 8c 8e 8g	.	.
=107	=107	=107	=107	=107	=107
16e>\	.	16ryy	8ryy	.	.
16ryy	.	16g/ 16gg	.	.	.
8r	.	4f#X/ 4ff#X	8r	.	.
8CCC^>/ 8CC	.	.	8F#X^\ 8A 8d 8f#	.	.
=108	=108	=108	=108	=108	=108
16G>\ 16d>	.	16ryy	8ryy	.	.
16ryy	.	16fn/ 16b 16ffn	.	.	.
8r	.	4e/ 4ee	8r	.	.
8CCC^>/ 8CC	.	.	8E^\ 8G 8c 8e	.	.
*	*	*v	*v	*	*
!!LO:LB:g=original	!	!	!	!
=109	=109	=109	=109	=109
!LO:TX:b:i:t=marcato	!	!	!	!
(16BB/LL	3	8r	.	.
16D/J	.	.	.	.
8C/)	.	8G#X/L 8g#X	.	.
8AA/J	.	8A/J 8a	.	.
=110	=110	=110	=110	=110
(16GG/LL	5	4.B/ 4.gn 4.b	.	.
16BB/J	3	.	.	.
8D/)	2	.	.	.
8E~>^/J	.	.	.	.
=111	=111	=111	=111	=111
(16BB/LL	3	(>8G#X/L 8fn 8g#X	3 5	.
16D/	.	.	.	.
16C/	.	8A/) 8e 8a	.	.
16BB/J	.	.	.	.
8AA/J)	.	8c/J 8e 8cc	.	.
=112	=112	=112	=112	=112
(16GG/LL	.	4.gn\ 4.b 4.ggn	3 5	.
16BB/J	.	.	.	.
8D/)	.	.	.	.
8E~>^/J	.	.	.	.
=113	=113	=113	=113	=113
(16BB/LL	.	8g#X\ 8ff 8gg#X	3 5	.
16D/	.	.	.	.
16C/	.	4a\ 4ff 4aa	.	.
16BB/J	.	.	.	.
8AA/J)	.	.	.	.
=114	=114	=114	=114	=114
(16GG#X/LL	.	4.b\ 4.ff 4.bb	.	.
16BB/J	.	.	.	.
8D/)	.	.	.	.
!LO:TX:a:i:t=rit.	!	!	!	!
[>8F^/J	.	.	.	.
=115	=115	=115	=115	=115
!LO:TX:a:i:t=molto	!	!	!	!
8F\L]	.	[4.a\ [4.ee-X [4.aa	.	.
*	*below	*	*	*
8F~\	2	.	.	.
8F~\J	1	.	.	.
!!LO:LB:g=original	!	!	!	!
=116	=116	=116	=116	=116
!	!	!LO:TX:b:i:t=a tempo	!	!
(16F#X\LL	3	8a\] 8ee-] 8aa]	.	.
16A\	2	.	.	.
16G\	1	4b\ 4dd 4bb	.	.
16Fn\	.	.	.	.
16D\	.	.	.	.
16E\JJ	.	.	.	.
=117	=117	=117	=117	=117
8C/)	.	4cc\ 4een 4ccc	.	.
4CC^>/ 4GG	.	.	.	.
.	.	8r	.	.
=118	=118	=118	=118	=118
4CC/ 4GG	.	4.r	.	.
8CC^>/ 8GG	.	.	.	.
=119	=119	=119	=119	=119
4CC/ 4GG	.	4.r	.	.
8CC^>/ 8GG	.	.	.	.
=120	=120	=120	=120	=120
!	!	!	!	!LO:DY:t=meno f
4CC/ 4GG	.	16e^>/LL	2	f
.	.	16f#X/	.	.
.	.	16g/	.	.
.	.	16e/	.	.
8CC/ 8GG	.	16d/	.	.
.	.	16f#/JJ	.	.
=121	=121	=121	=121	=121
4CC/ 4GG	.	16e/LL	.	.
.	.	16f#X/	.	.
.	.	16g/	.	.
.	.	16e/J	.	.
8CC/ 8GG	.	8c^>/J	.	.
=122	=122	=122	=122	=122
4CC/ 4GG	.	16e^>/LL	.	.
.	.	16f#X/	.	.
.	.	16g/	.	.
.	.	16e/	.	.
8CC/ 8GG	.	16d/	.	.
.	.	16f#/JJ	.	.
!!LO:PB:g=original	!	!	!	!
=123	=123	=123	=123	=123
4CC/ 4GG	.	16e/LL	.	.
.	.	16f#X/	.	.
.	.	16g/	.	.
.	.	16e/J	.	.
8CC/ 8GG	.	8c^>/J	.	.
=124	=124	=124	=124	=124
4CC/ 4GG	.	(24d/LL	3	.
.	.	24e/	.	.
.	.	24d/J	.	.
.	.	8c/)	.	<
8CC/ 8GG	.	8e/J	.	.
=125	=125	=125	=125	=125
4CC/ 4GG#X	.	(24d/LL	3	.
.	.	24e/	.	.
.	.	24d/J	.	.
.	.	8c/)	.	[
8CC/ 8GG#	.	8B/J	.	.
*	*	*clefF4	*	*
=126	=126	=126	=126	=126
4CC/ 4AA	.	(24A\LL	3	.
.	.	24B\	.	.
.	.	24A\J	.	.
.	.	8G\)	.	.
8CC/ 8AA	.	8B\J	.	.
=127	=127	=127	=127	=127
4CC/ 4BB	.	(24A\LL	3	.
.	.	24B\	.	.
.	.	24A\J	.	.
.	.	8G\)	.	.
8CC/ 8BB	.	8F\J	.	.
=128	=128	=128	=128	=128
4CC/ 4C	.	[4.E\	2	>
8CC/ 8GG	.	.	.	.
=129	=129	=129	=129	=129
4CC/ 4GG	.	4.E\_	.	]]
8CC/ 8GG	.	.	.	.
!!LO:LB:g=original	!	!	!	!
=130	=130	=130	=130	=130
*^	*	*	*	*
*	*	*above	*	*	*
4GG/	[4.CC\ [4.GG	2	16E\LL]	.	mp
.	.	.	16F#X\	3	.
.	.	.	16G\	4	.
.	.	.	16E\	2	.
[8AA~>/	.	1	16D\	1	.
.	.	.	16F#\JJ	3	.
=131	=131	=131	=131	=131	=131
8AA/L]	4.CC\] 4.GG]	.	16E\LL	2	.
.	.	.	16F#X\	.	.
8BB/	.	2	16G\	.	.
.	.	.	16E\JJ	.	.
8C/J	.	1	8r	.	.
=132	=132	=132	=132	=132	=132
4GG/	[4.CC\ [4.GG	2	16E\LL	.	.
.	.	.	16F#X\	.	.
.	.	.	16G\	.	.
.	.	.	16E\	.	.
[8AA/	.	1	16D\	.	.
.	.	.	16F#\JJ	.	.
=133	=133	=133	=133	=133	=133
8AA/L]	4.CC\] 4.GG]	.	16E\LL	.	.
.	.	.	16F#X\	.	.
8BB/	.	2	16G\	.	.
.	.	.	16E\JJ	.	.
8C/J	.	1	8r	.	.
*v	*v	*	*	*	*
=134	=134	=134	=134	=134
!LO:TUP:b	!	!	!	!
(24D/LL	2	4.r	.	.
24E/	.	.	.	.
24D/J	.	.	.	.
8C'/)	.	.	.	.
8E'^/J	.	.	.	.
=135	=135	=135	=135	=135
!LO:TUP:b	!	!	!	!
(24D/LL	.	8Fn'\L	1	.
24E/	.	.	.	.
24D/J	.	.	.	.
8C'/)	.	8F#X'\	2	<
8BB'^/J	.	8G#X'\J	3	[
!!LO:LB:g=original	!	!	!	!
=136	=136	=136	=136	=136
!LO:TUP:b	!	!	!	!
(24AA/LL	2	8A'\L	1	.
24BB/	.	.	.	.
24AA/J	.	.	.	.
8GG'/)	.	8A#X'\	2	.
8BB'^/J	.	8B'\J	3	.
*	*	*clefG2	*	*
=137	=137	=137	=137	=137
(24AA/LL	.	8c'/L	4	.
24BB/	.	.	.	.
24AA/J	.	.	.	.
8GG'/)	.	8B'/ 8d	1 3	.
8FF'/J	.	8A'/J 8d#X	1 4	.
=138	=138	=138	=138	=138
*	*	*^	*	*
*	*below	*	*	*	*
8EE'/L	5	16e/LL	8G\L	3	p
.	.	16f#X/	.	.	.
*	*	*	*	*^	*
*	*	*	*	*above	*below	*
8FF'/	.	16g/	8A\	.	1	<
.	.	16e/	.	3	.	.
8GG'/J	.	16d/	8B\J	2	1	.
.	.	16fn/JJ	.	4	.	.
=139	=139	=139	=139	=139	=139	=139
8AA'/L	.	16e/LL	8c\L	3	1	.
.	.	16f#X/	.	4	.	.
8BB'/	.	16g/	8d\J	5	2	.
.	.	16e/J	.	3	.	.
8C'/J	3	[8c/J	8ryy	1	.	.
*	*	*	*	*v	*v	*
=140	=140	=140	=140	=140	=140
8D'\L	.	16e/LL	4.c\]	3	.
.	.	16f#X/	.	.	.
8E'\	.	16g/	.	.	.
.	.	16e/	.	.	[
8F#X'\J	3	16d/	.	.	.
.	.	16f#/JJ	.	.	.
=141	=141	=141	=141	=141	=141
8G'\L	.	16e/LL	4.c\	.	.
.	.	16f#X/	.	.	.
8A'\	.	16g/	.	.	.
.	.	16e/J	.	.	.
8A#X'\J	3	8c/J	.	.	.
*	*	*v	*v	*	*
!!LO:LB:g=original	!	!	!	!
=142	=142	=142	=142	=142
8B\L	.	(24d/LL	.	.
.	.	24e/	.	.
.	.	24d/J)	.	.
8c\	.	8r	.	.
8c#X\J	.	8e'/J	.	.
=143	=143	=143	=143	=143
8r	.	(24d/LL	2	.
.	.	24e/	.	.
.	.	24d/J	.	.
*clefG2	*	*	*	*
8d#X'/L	4	8c/)	.	>
8e'/J	.	8B/J	4	.
*	*	*clefF4	*	*
=144	=144	=144	=144	=144
!	!	!LO:TUP:a	!	!
8f'/L	.	(24A\LL	3	.
.	.	24B\	.	.
.	.	24A\J	.	.
8g'/	.	8G\)	.	.
8g#X'/J	3	8B\J	.	.
=145	=145	=145	=145	=145
!	!	!LO:TUP:a	!	!
8a'/L	1	(24A\LL	3	.
.	.	24B\	.	.
.	.	24A\J	.	.
8a#X'/	3	8G\)	.	]
8b'/J	2	8F\J	.	.
=146	=146	=146	=146	=146
!	!	!LO:TUP:a	!	!
8cc'\	.	(24F\LL	3	.
.	.	24G\	.	.
.	.	24F\J	.	.
4c~/	.	8E\	.	.
.	.	8G\J)	.	.
=147	=147	=147	=147	=147
!	!	!LO:TUP:a	!	!
8cc'\	.	(24F\LL	3	.
.	.	24G\	.	.
.	.	24F\J	.	.
4c~/	.	8E\	.	.
.	.	8G\J)	.	.
*clefF4	*	*	*	*
!!LO:LB:g=original	!	!	!	!
=148	=148	=148	=148	=148
*	*	*^	*	*
!	!	!LO:TUP:a	!	!	!
8GG/	.	(24F\LL	8ryy	2	.
.	.	24G\	.	.	.
.	.	24F\J	.	.	.
4CC/	.	8E\	4E/	.	.
.	.	8c\J)	.	.	.
=149	=149	=149	=149	=149	=149
!	!	!LO:TUP:a	!	!	!
8GG'/	.	(24F\LL	8ryy	2	.
.	.	24G\	.	.	.
.	.	24F\J	.	.	.
N(4EE/	.	8E\	[4E/	.	.
.	.	[8c\J)	.	3	.
=150	=150	=150	=150	=150	=150
*^	*	*	*	*	*
*	*	*above	*	*	*	*
(4GG/	4.CC\N)	1	(16c/LL]	4.E\]	.	.
.	.	.	16d/	.	.	.
.	.	.	16e/	.	.	.
.	.	.	16c/J	.	.	.
8FF#X^/)	.	.	8A^/J)	.	2	.
=151	=151	=151	=151	=151	=151	=151
(4GG/	4.CC\	.	(16c/LL	4.E\	.	.
.	.	.	16d/	.	.	.
.	.	.	16e/	.	.	.
.	.	.	16c/J	.	.	.
8AA-X^/)	.	.	8A-X^/J)	.	2	.
=152	=152	=152	=152	=152	=152	=152
!	!	!	!	!LO:TX:b:Bi:t=sempre più p_:problem:dynamics with line extensions	!	!LO:DY:t=sempre più p_
(4GG/	4.CC\	.	(16c/LL	4.E\	.	p
.	.	.	16d/	.	.	.
.	.	.	16e/	.	.	.
.	.	.	16c/J	.	.	.
8FF#X^/)	.	.	8An^/J)	.	.	.
=153	=153	=153	=153	=153	=153	=153
(4GG/	4.CC\	.	(16c/LL	4.E\	.	.
.	.	.	16d/	.	.	.
.	.	.	16e/	.	.	.
.	.	.	16c/J	.	.	.
8AA-X^/)	.	.	8A-X^/J)	.	.	.
*v	*v	*	*	*	*	*
*	*	*v	*v	*	*
!!LO:LB:g=original	!	!	!	!
=154	=154	=154	=154	=154
(>4CC/ 4GG	.	[4.E\ [4.c	.	.
8CC^>/) 8AA-X	.	.	.	.
=155	=155	=155	=155	=155
(>4CC/ 4GG	.	4.E\] 4.c]	.	.
8CC^>/) 8AA-X	.	.	.	.
=156	=156	=156	=156	=156
(>4CC/ 4GG	.	(>16C/LL	.	.
.	.	16D/	.	.
.	.	16E/	.	.
.	.	[16C/J	.	.
8CC^>/) 8AA-X	.	8C/J_)	.	.
=157	=157	=157	=157	=157
(>4CC/ 4GG	.	4.C/_	.	.
8CC^>/) 8AA-X	.	.	.	.
=158	=158	=158	=158	=158
4.CC/ 4.GG	.	4.C/_	.	.
=159	=159	=159	=159	=159
[4.CC/ [4.GG	.	4.C/_	.	.
=160	=160	=160	=160	=160
!	!	!LO:TX:b:i:t=rit.	!	!
4.CC/] 4.GG]	.	4.C/_	.	.
=161	=161	=161	=161	=161
[4.CC/ [4.GG	.	4C/]	.	.
.	.	8r	.	.
=162	=162	=162	=162	=162
4.CC/] 4.GG]	.	4.r	.	.
=163	=163	=163	=163	=163
8CCC/	.	4.r	.	.
8r	.	.	.	.
8r	.	.	.	.
==	==	==	==	==
*-	*-	*-	*-	*-
!!!system-decoration: {s1,s2}
!!!RDF**kern: N = linked
!!!RDF**kern: > = above
!!!RDF**kern: < = below
!!!ENC: Anastazja Marusiak
!!!END: 2023-10-19
!!!EED: Jan Barakat
!!!EEV: 2023-11-10
